frontend/public/assets/material-icons/folder-log-open.svg

<svg xmlns="http://www.w3.org/2000/svg" viewBox="0 0 32 32">
  <path d="M28.96692,12H9.44152a2,2,0,0,0-1.89737,1.36754L4,24V10H28a2,2,0,0,0-2-2H15.1241a2,2,0,0,1-1.28038-.46357L12.5563,6.46357A2,2,0,0,0,11.27592,6H4A2,2,0,0,0,2,8V24a2,2,0,0,0,2,2H26l4.80523-11.21213A2,2,0,0,0,28.96692,12Z" style="fill: #afb42b"/>
  <path d="M30.337,14H17.663A1.66293,1.66293,0,0,0,16,15.663V26.337A1.663,1.663,0,0,0,17.663,28H30.337A1.663,1.663,0,0,0,32,26.337V15.663A1.66293,1.66293,0,0,0,30.337,14ZM26,26H20V24h6Zm2-4H20V20h8Zm0-4H20V16h8Z" style="fill: #f0f4c3;fill-rule: evenodd"/>
</svg>

<svg xmlns="http://www.w3.org/2000/svg" viewBox="0 0 32 32"><path fill="#afb42b" d="M28.967 12H9.442a2 2 0 0 0-1.898 1.368L4 24V10h24a2 2 0 0 0-2-2H15.124a2 2 0 0 1-1.28-.464l-1.288-1.072A2 2 0 0 0 11.276 6H4a2 2 0 0 0-2 2v16a2 2 0 0 0 2 2h22l4.805-11.212A2 2 0 0 0 28.967 12"/><path fill="#f0f4c3" d="M30.337 14H17.663A1.663 1.663 0 0 0 16 15.663v10.674A1.663 1.663 0 0 0 17.663 28h12.674A1.663 1.663 0 0 0 32 26.337V15.663A1.663 1.663 0 0 0 30.337 14M26 26h-6v-2h6Zm2-4h-8v-2h8Zm0-4h-8v-2h8Z"/></svg>
